X: 2
T: Stone's Rag
M: 4/4
L: 1/8
K: C
|: "C"cdeg- gage | ageg- gage \
| "F"FGAc- cdcA | "D7"dcAc- cdcA \
| "G7"BdBG- G^FGA | BdBG- G^FGB |
|1 "C"cdeg- gage | "G7"g4 zABc \
:|2 "G7"gega- age2 | "C"c6 g2 \
[| "A7"agea- age2 | agea- age2 \
| "D7"dcAd- dcA2 |
| dcAd- dcA2 \
| "G7"BdBG- G^FGA |BdBG- G^FGB \
| "C"cdeg- gage | g4 "E7"^g4 \
|| "A7"agea- age2 |
| agea- age2 \
| "D7"dcAd- dcA2 | dcAd- dcA2 \
| "F"c'4 "D7/f#"a4 | "C"gage- "A7/c#"edcA \
| "D7"GAce- "G7"ecd2 | "C"c8 |]
